X:129
T:Dubacha
B:Terry "Cuz" Teahan "Sliabh Luachra on Parade" 1980
Z:Patrick Cavanagh
M:3/4
L:1/8
R:Waltz
K:D
B2A2 | F6 | F2E2F2 | G6 | G2F2G2 | A6 | A2B2c2 | e2d2B2 | A2F2E2 | 
F6 | F2E2F2 | G6 | G2F2G2 | A6 | A2B2c2 | e2d2c2 | d4e2 | 
f6 | f2e2d2 | c2e2d2 | c2B2A2 | e4d2 | c2B2A2 | B2e2d2 | c2B2A2 | 
f6 | f2e2d2 | c2e2d2 | c2B2A2 | e4d2 | c2B2A2 | B2c2e2 | d6 || 

